images/logo/logo-footer-1920.svg

<svg width="195" height="50" viewBox="0 0 195 50" fill="none" xmlns="http://www.w3.org/2000/svg">
<path d="M49 35H0L24.5 9L49 35ZM13.3075 22.1309L16.6442 25.6702L19.981 22.1309L16.6442 18.5812L13.3075 22.1309ZM16.6442 34.0052L19.981 30.466L16.6442 26.9162L13.3075 30.466L16.6442 34.0052ZM32.4083 34.0052L35.745 30.466L32.4083 26.9162L29.019 30.466L32.4083 34.0052ZM28.4673 14.4031C28.4473 14.4376 28.4207 14.4694 28.3885 14.4974C27.3507 15.6178 26.2997 16.7382 25.2357 17.8482C25.1437 17.9424 25.2357 18.0052 25.2357 18.089L28.3097 21.356L28.4542 21.4921L31.7909 17.9634L28.4673 14.4031ZM8.78847 34.0052L8.91984 33.8691L11.9938 30.6126C12.0428 30.5717 12.0702 30.5173 12.0702 30.4607C12.0702 30.4042 12.0428 30.3498 11.9938 30.3089C11.0611 29.3456 10.1547 28.3613 9.23512 27.3874L8.78847 26.9162L5.45174 30.466L8.78847 34.0052ZM17.2354 17.9529L20.5721 21.4921L20.6772 21.3979L23.8169 18.0681C23.922 17.9529 23.8169 17.89 23.8169 17.8063L20.7429 14.5602L20.6115 14.4241L17.2354 17.9529ZM17.2354 26.3298L20.5721 29.8691L20.7429 29.7016C21.7413 28.6545 22.7528 27.6073 23.7643 26.4869C23.7926 26.4663 23.8152 26.4412 23.8307 26.4133C23.8461 26.3853 23.8541 26.3551 23.8541 26.3246C23.8541 26.2941 23.8461 26.2639 23.8307 26.2359C23.8152 26.208 23.7926 26.1829 23.7643 26.1623C22.8185 25.1675 21.8727 24.1728 20.9399 23.1675L20.5721 22.7906L17.2354 26.3298ZM32.9995 26.3298L36.3362 29.8691L39.6729 26.3298L36.3362 22.7906L32.9995 26.3298ZM28.4673 22.7801V22.8534L25.3013 26.2147C25.1962 26.3089 25.2357 26.3717 25.3013 26.4555L28.244 29.5969C28.3228 29.6911 28.4147 29.7853 28.5198 29.8901L31.8566 26.3508L28.4673 22.7801ZM12.7295 29.8482C12.7453 29.8175 12.7675 29.7892 12.7952 29.7644L15.9611 26.4031C16.0531 26.2984 15.9611 26.2461 15.9611 26.1623L12.8477 22.8953C12.8069 22.8484 12.7583 22.8061 12.7032 22.7696L9.37962 26.2984L12.7295 29.8482ZM32.3558 25.6597L35.6925 22.1204L32.3558 18.5916L29.019 22.1309L32.3558 25.6597ZM24.4737 17.2827L27.8105 13.7435L24.5263 10.2775H24.4606L21.2552 13.712C21.2354 13.7371 21.2249 13.7662 21.2249 13.7958C21.2249 13.8255 21.2354 13.8545 21.2552 13.8796L24.4737 17.2827ZM24.4737 25.6597L27.8105 22.1204L24.5 18.5812L21.1633 22.1309L24.4737 25.6597ZM24.4737 34.0366L27.8105 30.4974L24.4737 26.9476L21.1633 30.466L24.4737 34.0366ZM40.2378 34.0366L43.5745 30.4974L40.2509 26.9791H40.1853L36.9668 30.3613C36.8617 30.4764 36.9668 30.5288 36.9668 30.6021L39.5941 33.4398L40.2378 34.0366ZM1.89169 34.2356H7.88204L4.91314 31.0942L1.89169 34.2356ZM41.1705 34.2356H47.1083L44.1394 31.0942L41.1705 34.2356ZM23.5542 34.2356L20.5721 31.0942L17.5901 34.2356H23.5542ZM33.3147 34.2356H39.2525L36.2836 31.0942L33.3147 34.2356ZM31.3968 34.2356L28.4279 31.0942L25.459 34.2356H31.3968ZM15.6327 34.2356L12.6638 31.0942L9.69491 34.2356H15.6327Z" fill="white"/>
<path d="M76.26 34.72H76.4C76.5493 34.72 76.68 34.6733 76.792 34.58C76.904 34.468 76.9973 34.3373 77.072 34.188C77.1653 34.0387 77.2307 33.88 77.268 33.712C77.324 33.544 77.352 33.3853 77.352 33.236V18.256C77.352 18.1253 77.324 17.976 77.268 17.808C77.2307 17.64 77.1653 17.4813 77.072 17.332C76.9973 17.1827 76.904 17.0613 76.792 16.968C76.68 16.856 76.5493 16.8 76.4 16.8H76.26V16.52H80.292V16.8H80.152C80.0027 16.8 79.872 16.856 79.76 16.968C79.648 17.0613 79.5547 17.1827 79.48 17.332C79.4053 17.4813 79.34 17.64 79.284 17.808C79.2467 17.976 79.228 18.1253 79.228 18.256V33.964H85.36C85.7147 33.964 86.0227 33.88 86.284 33.712C86.5453 33.544 86.76 33.3387 86.928 33.096C87.1147 32.8347 87.2453 32.564 87.32 32.284C87.4133 31.9853 87.46 31.7147 87.46 31.472H87.74V35H76.26V34.72ZM102.563 16.24C104.019 16.24 105.326 16.5013 106.483 17.024C107.641 17.528 108.621 18.2187 109.423 19.096C110.245 19.9547 110.87 20.9627 111.299 22.12C111.747 23.2587 111.971 24.4533 111.971 25.704C111.971 27.104 111.71 28.392 111.187 29.568C110.683 30.744 109.983 31.752 109.087 32.592C108.191 33.432 107.146 34.0947 105.951 34.58C104.775 35.0467 103.515 35.28 102.171 35.28C100.734 35.28 99.4365 35.0187 98.2792 34.496C97.1405 33.9733 96.1699 33.2827 95.3672 32.424C94.5832 31.5653 93.9765 30.576 93.5472 29.456C93.1179 28.336 92.9032 27.1693 92.9032 25.956C92.9032 24.7613 93.1179 23.5853 93.5472 22.428C93.9765 21.252 94.6019 20.2067 95.4232 19.292C96.2632 18.3773 97.2805 17.64 98.4752 17.08C99.6699 16.52 101.033 16.24 102.563 16.24ZM102.535 34.3C103.786 34.244 104.878 33.964 105.811 33.46C106.763 32.9373 107.557 32.284 108.191 31.5C108.826 30.6973 109.293 29.82 109.591 28.868C109.909 27.916 110.067 26.9733 110.067 26.04C110.067 25.0133 109.881 23.9773 109.507 22.932C109.134 21.8867 108.602 20.944 107.911 20.104C107.221 19.2453 106.39 18.5547 105.419 18.032C104.467 17.4907 103.394 17.22 102.199 17.22C101.042 17.22 100.006 17.4813 99.0912 18.004C98.1765 18.508 97.3925 19.1613 96.7392 19.964C96.1045 20.7667 95.6192 21.6627 95.2832 22.652C94.9472 23.6413 94.7792 24.612 94.7792 25.564C94.7792 26.5907 94.9752 27.6267 95.3672 28.672C95.7592 29.6987 96.3005 30.632 96.9912 31.472C97.6819 32.312 98.4939 32.9933 99.4272 33.516C100.379 34.0387 101.415 34.3 102.535 34.3ZM119.428 16.52H123.404V16.8H123.264C123.115 16.8 122.984 16.856 122.872 16.968C122.76 17.0613 122.657 17.1827 122.564 17.332C122.489 17.4813 122.433 17.64 122.396 17.808C122.359 17.976 122.34 18.1253 122.34 18.256V29.316C122.34 30.044 122.415 30.716 122.564 31.332C122.713 31.948 122.965 32.48 123.32 32.928C123.675 33.376 124.141 33.7307 124.72 33.992C125.299 34.2347 126.008 34.356 126.848 34.356C127.781 34.356 128.528 34.2067 129.088 33.908C129.648 33.6093 130.077 33.2267 130.376 32.76C130.675 32.2747 130.871 31.7333 130.964 31.136C131.057 30.5387 131.104 29.9507 131.104 29.372V18.256C131.104 18.1253 131.085 17.976 131.048 17.808C131.011 17.64 130.945 17.4813 130.852 17.332C130.777 17.1827 130.684 17.0613 130.572 16.968C130.46 16.856 130.339 16.8 130.208 16.8H130.068V16.52H133.12V16.8H132.98C132.831 16.8 132.7 16.856 132.588 16.968C132.495 17.0613 132.401 17.1827 132.308 17.332C132.233 17.4813 132.177 17.64 132.14 17.808C132.103 17.976 132.084 18.1253 132.084 18.256V29.288C132.084 30.5013 131.935 31.5 131.636 32.284C131.337 33.0493 130.927 33.656 130.404 34.104C129.881 34.552 129.265 34.86 128.556 35.028C127.865 35.196 127.128 35.28 126.344 35.28C125.504 35.28 124.72 35.1867 123.992 35C123.283 34.832 122.667 34.524 122.144 34.076C121.621 33.628 121.211 33.0213 120.912 32.256C120.613 31.472 120.464 30.492 120.464 29.316V18.256C120.464 18.1253 120.445 17.976 120.408 17.808C120.371 17.64 120.305 17.4813 120.212 17.332C120.137 17.1827 120.044 17.0613 119.932 16.968C119.82 16.856 119.699 16.8 119.568 16.8H119.428V16.52ZM143.076 17.5C143.076 17.612 143.104 17.752 143.16 17.92L148.088 31.192L153.016 17.78C153.034 17.7427 153.053 17.6867 153.072 17.612C153.09 17.5373 153.1 17.4813 153.1 17.444C153.1 17.22 153.006 17.0613 152.82 16.968C152.652 16.856 152.493 16.8 152.344 16.8V16.52H155.396V16.8C155.116 16.8 154.854 16.8747 154.612 17.024C154.388 17.1733 154.21 17.4253 154.08 17.78L147.668 35.336L141.116 17.864C141.004 17.584 140.836 17.3413 140.612 17.136C140.406 16.9307 140.145 16.8187 139.828 16.8V16.52H143.804V16.8C143.636 16.8 143.468 16.8653 143.3 16.996C143.15 17.108 143.076 17.276 143.076 17.5ZM166.076 34.72H166.216V35H162.268V34.72H162.408C162.538 34.72 162.66 34.664 162.772 34.552C162.884 34.44 162.977 34.3093 163.052 34.16C163.145 34.0107 163.21 33.852 163.248 33.684C163.285 33.4973 163.304 33.3293 163.304 33.18V18.256C163.304 18.1253 163.285 17.976 163.248 17.808C163.21 17.64 163.145 17.4813 163.052 17.332C162.977 17.1827 162.884 17.0613 162.772 16.968C162.66 16.856 162.538 16.8 162.408 16.8H162.268V16.52H167.14C169.006 16.52 170.444 16.884 171.452 17.612C172.478 18.34 172.992 19.4133 172.992 20.832C172.992 21.5413 172.87 22.1667 172.628 22.708C172.404 23.2307 172.096 23.688 171.704 24.08C171.312 24.4533 170.845 24.7613 170.304 25.004C169.781 25.228 169.221 25.396 168.624 25.508L170.64 28.588C171.125 29.3347 171.62 30.072 172.124 30.8C172.628 31.5093 173.122 32.2467 173.608 33.012C173.738 33.1987 173.878 33.3947 174.028 33.6C174.196 33.8053 174.364 33.992 174.532 34.16C174.718 34.328 174.905 34.468 175.092 34.58C175.297 34.6733 175.502 34.72 175.708 34.72V35H174.504C173.757 35 173.141 34.8227 172.656 34.468C172.189 34.0947 171.797 33.6653 171.48 33.18C170.64 31.948 169.8 30.6973 168.96 29.428C168.138 28.1587 167.317 26.908 166.496 25.676C166.29 25.6573 166.066 25.6387 165.824 25.62C165.6 25.5827 165.385 25.5453 165.18 25.508V33.18C165.18 33.3293 165.198 33.4973 165.236 33.684C165.273 33.852 165.329 34.0107 165.404 34.16C165.497 34.3093 165.59 34.44 165.684 34.552C165.796 34.664 165.926 34.72 166.076 34.72ZM165.18 17.472V24.584H165.32C165.469 24.6027 165.702 24.6213 166.02 24.64C166.356 24.64 166.766 24.64 167.252 24.64C167.644 24.64 168.054 24.584 168.484 24.472C168.932 24.3413 169.342 24.136 169.716 23.856C170.108 23.5573 170.425 23.1747 170.668 22.708C170.929 22.2413 171.06 21.6533 171.06 20.944C171.06 20.2347 170.92 19.656 170.64 19.208C170.378 18.76 170.005 18.4053 169.52 18.144C169.053 17.8827 168.484 17.7053 167.812 17.612C167.14 17.5187 166.402 17.472 165.6 17.472H165.18ZM182.389 34.72H182.529C182.678 34.72 182.809 34.6733 182.921 34.58C183.033 34.468 183.126 34.3373 183.201 34.188C183.294 34.0387 183.36 33.88 183.397 33.712C183.453 33.544 183.481 33.3853 183.481 33.236V18.256C183.481 18.1253 183.453 17.976 183.397 17.808C183.36 17.64 183.294 17.4813 183.201 17.332C183.126 17.1827 183.033 17.0613 182.921 16.968C182.809 16.856 182.678 16.8 182.529 16.8H182.389V16.52H193.169V19.124H192.889C192.852 18.6947 192.684 18.3213 192.385 18.004C192.086 17.668 191.62 17.5 190.985 17.5H185.357V24.584H190.005C190.434 24.584 190.789 24.4533 191.069 24.192C191.368 23.9307 191.517 23.6227 191.517 23.268H191.797V26.768H191.517C191.517 26.432 191.377 26.1427 191.097 25.9C190.817 25.6573 190.453 25.536 190.005 25.536H185.357V34.02H191.489C191.844 34.02 192.152 33.936 192.413 33.768C192.674 33.6 192.889 33.404 193.057 33.18C193.244 32.9373 193.374 32.6853 193.449 32.424C193.542 32.144 193.589 31.9107 193.589 31.724H193.869V35H182.389V34.72Z" fill="white"/>
</svg>

<svg xmlns="http://www.w3.org/2000/svg" width="195" height="50" fill="none"><path fill="#fff" d="M49 35H0L24.5 9zM13.308 22.13l3.336 3.54 3.337-3.54-3.337-3.549zm3.336 11.875 3.337-3.539-3.337-3.55-3.336 3.55zm15.764 0 3.337-3.539-3.337-3.55-3.389 3.55zm-3.94-19.602a.4.4 0 0 1-.08.094 269 269 0 0 1-3.152 3.351c-.092.094 0 .157 0 .241l3.074 3.267.144.136 3.337-3.529zM8.787 34.005l.132-.136 3.074-3.256a.2.2 0 0 0 .076-.152.2.2 0 0 0-.076-.152c-.933-.963-1.84-1.948-2.759-2.922l-.447-.47-3.336 3.549zm8.447-16.052 3.337 3.54.105-.095 3.14-3.33c.105-.115 0-.178 0-.262l-3.074-3.246-.131-.136zm0 8.377 3.337 3.54.17-.168c1-1.048 2.01-2.095 3.022-3.215a.2.2 0 0 0 .067-.074.2.2 0 0 0 .023-.088q0-.046-.023-.09a.2.2 0 0 0-.067-.073c-.945-.994-1.891-1.99-2.824-2.994l-.368-.377zm15.764 0 3.337 3.54 3.337-3.54-3.337-3.54zm-4.532-3.55v.073l-3.166 3.362c-.105.094-.065.157 0 .24l2.943 3.142c.079.094.17.188.276.293l3.337-3.54zM12.73 29.848a.3.3 0 0 1 .065-.084l3.166-3.36c.092-.106 0-.158 0-.242l-3.113-3.267a.7.7 0 0 0-.145-.125L9.38 26.298zm19.626-4.188 3.337-3.54-3.337-3.528-3.337 3.539zm-7.882-8.377 3.337-3.54-3.285-3.466h-.065l-3.206 3.435a.14.14 0 0 0-.03.084q0 .046.03.084zm0 8.377 3.337-3.54-3.311-3.539-3.337 3.55zm0 8.377 3.337-3.54-3.337-3.55-3.31 3.519zm15.764 0 3.337-3.54-3.324-3.518h-.066l-3.218 3.382c-.105.115 0 .168 0 .241l2.627 2.838zm-38.346.199h5.99l-2.969-3.142zm39.278 0h5.938l-2.969-3.142zm-17.616 0-2.982-3.142-2.982 3.142zm9.76 0h5.938l-2.968-3.142zm-1.917 0-2.97-3.142-2.968 3.142zm-15.764 0-2.97-3.142-2.968 3.142zM76.26 34.72h.14q.225 0 .392-.14.168-.168.28-.392a1.5 1.5 0 0 0 .196-.476q.084-.252.084-.476v-14.98q0-.196-.084-.448a1.5 1.5 0 0 0-.196-.476 1.1 1.1 0 0 0-.28-.364.54.54 0 0 0-.392-.168h-.14v-.28h4.032v.28h-.14q-.225 0-.392.168a1.1 1.1 0 0 0-.28.364q-.112.224-.196.476a2 2 0 0 0-.056.448v15.708h6.132q.532 0 .924-.252t.644-.616q.28-.392.392-.812.14-.449.14-.812h.28V35H76.26zm26.303-18.48q2.184 0 3.92.784 1.737.756 2.94 2.072a8.7 8.7 0 0 1 1.876 3.024 9.7 9.7 0 0 1 .672 3.584q0 2.1-.784 3.864a8.9 8.9 0 0 1-2.1 3.024 10.1 10.1 0 0 1-3.136 1.988q-1.764.7-3.78.7-2.156 0-3.892-.784a9.2 9.2 0 0 1-2.912-2.072 9.3 9.3 0 0 1-1.82-2.968 9.7 9.7 0 0 1-.644-3.5q0-1.792.644-3.528a9.6 9.6 0 0 1 1.876-3.136q1.26-1.372 3.052-2.212t4.088-.84m-.028 18.06q1.877-.084 3.276-.84 1.428-.784 2.38-1.96a8.1 8.1 0 0 0 1.4-2.632 8.9 8.9 0 0 0 .476-2.828 9.2 9.2 0 0 0-.56-3.108 9.4 9.4 0 0 0-1.596-2.828 8.1 8.1 0 0 0-2.492-2.072q-1.428-.812-3.22-.812-1.736 0-3.108.784a8 8 0 0 0-2.352 1.96 8.9 8.9 0 0 0-1.456 2.688 9 9 0 0 0-.504 2.912q0 1.54.588 3.108a10 10 0 0 0 1.624 2.8 8.5 8.5 0 0 0 2.436 2.044 6.35 6.35 0 0 0 3.108.784m16.893-17.78h3.976v.28h-.14a.54.54 0 0 0-.392.168 1.5 1.5 0 0 0-.308.364q-.112.224-.168.476a2 2 0 0 0-.056.448v11.06q0 1.092.224 2.016t.756 1.596 1.4 1.064q.868.364 2.128.364 1.4 0 2.24-.448t1.288-1.148a4.3 4.3 0 0 0 .588-1.624q.14-.895.14-1.764V18.256q0-.196-.056-.448a1.5 1.5 0 0 0-.196-.476 1.1 1.1 0 0 0-.28-.364.5.5 0 0 0-.364-.168h-.14v-.28h3.052v.28h-.14a.54.54 0 0 0-.392.168 2 2 0 0 0-.28.364q-.113.224-.168.476a2 2 0 0 0-.056.448v11.032q0 1.82-.448 2.996-.448 1.148-1.232 1.82a4.3 4.3 0 0 1-1.848.924 9.3 9.3 0 0 1-2.212.252q-1.26 0-2.352-.28a4.3 4.3 0 0 1-1.848-.924q-.784-.672-1.232-1.82-.448-1.176-.448-2.94v-11.06q0-.196-.056-.448a1.5 1.5 0 0 0-.196-.476 1.1 1.1 0 0 0-.28-.364.5.5 0 0 0-.364-.168h-.14zm23.648.98q0 .168.084.42l4.928 13.272 4.928-13.412a1 1 0 0 0 .056-.168 1 1 0 0 0 .028-.168q0-.336-.28-.476a.87.87 0 0 0-.476-.168v-.28h3.052v.28q-.42 0-.784.224-.336.224-.532.756l-6.412 17.556-6.552-17.472a2 2 0 0 0-.504-.728 1.17 1.17 0 0 0-.784-.336v-.28h3.976v.28a.82.82 0 0 0-.504.196q-.224.168-.224.504m23 17.22h.14V35h-3.948v-.28h.14a.5.5 0 0 0 .364-.168q.168-.168.28-.392.14-.224.196-.476.056-.28.056-.504V18.256q0-.196-.056-.448a1.5 1.5 0 0 0-.196-.476 1.1 1.1 0 0 0-.28-.364.5.5 0 0 0-.364-.168h-.14v-.28h4.872q2.8 0 4.312 1.092 1.54 1.092 1.54 3.22 0 1.065-.364 1.876-.336.784-.924 1.372a5 5 0 0 1-1.4.924 8 8 0 0 1-1.68.504l2.016 3.08q.728 1.12 1.484 2.212.756 1.065 1.484 2.212.195.28.42.588.252.308.504.56.28.252.56.42.307.14.616.14V35h-1.204q-1.12 0-1.848-.532a5.5 5.5 0 0 1-1.176-1.288q-1.26-1.848-2.52-3.752-1.233-1.904-2.464-3.752a51 51 0 0 0-.672-.056 44 44 0 0 1-.644-.112v7.672q0 .224.056.504.055.252.168.476.14.224.28.392a.54.54 0 0 0 .392.168m-.896-17.248v7.112h.14q.223.028.7.056h1.232q.587 0 1.232-.168.672-.195 1.232-.616.588-.448.952-1.148.392-.7.392-1.764t-.42-1.736a2.8 2.8 0 0 0-1.12-1.064q-.7-.392-1.708-.532t-2.212-.14zm17.209 17.248h.14q.224 0 .392-.14.168-.168.28-.392a1.5 1.5 0 0 0 .196-.476q.084-.252.084-.476v-14.98q0-.196-.084-.448a1.5 1.5 0 0 0-.196-.476 1.1 1.1 0 0 0-.28-.364.54.54 0 0 0-.392-.168h-.14v-.28h10.78v2.604h-.28a1.82 1.82 0 0 0-.504-1.12q-.448-.504-1.4-.504h-5.628v7.084h4.648q.644 0 1.064-.392.448-.392.448-.924h.28v3.5h-.28q0-.504-.42-.868t-1.092-.364h-4.648v8.484h6.132q.532 0 .924-.252t.644-.588q.28-.364.392-.756.14-.42.14-.7h.28V35h-11.48z"/></svg>
